svg/emoji/sob_fill.svg

<?xml version="1.0" encoding="UTF-8"?>
<svg width="24px" height="24px" viewBox="0 0 24 24" version="1.1" xmlns="http://www.w3.org/2000/svg" xmlns:xlink="http://www.w3.org/1999/xlink">
    <title>sob_fill</title>
    <g id="Icon" stroke="none" stroke-width="1" fill="none" fill-rule="evenodd">
        <g id="Emoji" transform="translate(-720.000000, -48.000000)">
            <g id="sob_fill" transform="translate(720.000000, 48.000000)">
                <path d="M24,0 L24,24 L0,24 L0,0 L24,0 Z M12.5935,23.2578 L12.5819,23.2595 L12.5109,23.295 L12.4919,23.2987 L12.4767,23.295 L12.4057,23.2595 C12.3958,23.2564 12.387,23.259 12.3821,23.2649 L12.378,23.2758 L12.3609,23.7031 L12.3659,23.7235 L12.3769,23.7357 L12.4805,23.8097 L12.4953,23.8136 L12.5071,23.8097 L12.6107,23.7357 L12.6233,23.7197 L12.6267,23.7031 L12.6096,23.2758 C12.6076,23.2657 12.601,23.2593 12.5935,23.2578 Z M12.8584,23.1453 L12.8445,23.1473 L12.6598,23.2397 L12.6499,23.2499 L12.6472,23.2611 L12.6651,23.6906 L12.6699,23.7034 L12.6784,23.7105 L12.8793,23.8032 C12.8914,23.8069 12.9022,23.803 12.9078,23.7952 L12.9118,23.7812 L12.8777,23.1665 C12.8753,23.1546 12.8674,23.147 12.8584,23.1453 Z M12.143,23.1473 C12.1332,23.1424 12.1222,23.1453 12.1156,23.1526 L12.1099,23.1665 L12.0758,23.7812 C12.0751,23.7927 12.0828,23.8019 12.0926,23.8046 L12.1083,23.8032 L12.3092,23.7105 L12.3186,23.7024 L12.3225,23.6906 L12.3404,23.2611 L12.3372,23.2485 L12.3278,23.2397 L12.143,23.1473 Z" id="MingCute" fill-rule="nonzero"></path>
                <path d="M12,2 C17.5228,2 22,6.47715 22,12 C22,15.7014 19.989,18.9331 17,20.6622 L17,13 C17,12.4477 16.5523,12 16,12 C15.4477,12 15,12.4477 15,13 L15,21 C15,21.1818 15.0485,21.3524 15.1334,21.4993 C14.1478,21.8242 13.0944,22 12,22 C10.9056,22 9.85223,21.8242 8.86663,21.4993 C8.95146,21.3524 9,21.1818 9,21 L9,13 C9,12.4477 8.55228,12 8,12 C7.44772,12 7,12.4477 7,13 L7,20.6622 C4.01099,18.9331 2,15.7014 2,12 C2,6.47715 6.47715,2 12,2 Z M10,8 L7,8 C6.44772,8 6,8.44772 6,9 C6,9.51283143 6.38604429,9.93550653 6.88337975,9.9932722 L7,10 L10,10 C10.5523,10 11,9.55228 11,9 C11,8.48716857 10.613973,8.06449347 10.1166239,8.0067278 L10,8 Z M17,8 L14,8 C13.4477,8 13,8.44772 13,9 C13,9.55228 13.4477,10 14,10 L17,10 C17.5523,10 18,9.55228 18,9 C18,8.44772 17.5523,8 17,8 Z" id="形状" fill="#09244B"></path>
            </g>
        </g>
    </g>
</svg>

<svg xmlns="http://www.w3.org/2000/svg" width="24" height="24"><g fill="none" fill-rule="evenodd"><path d="M24 0v24H0V0h24ZM12.594 23.258l-.012.002-.071.035-.02.004-.014-.004-.071-.036c-.01-.003-.019 0-.024.006l-.004.01-.017.428.005.02.01.013.104.074.015.004.012-.004.104-.074.012-.016.004-.017-.017-.427c-.002-.01-.009-.017-.016-.018Zm.264-.113-.014.002-.184.093-.01.01-.003.011.018.43.005.012.008.008.201.092c.012.004.023 0 .029-.008l.004-.014-.034-.614c-.003-.012-.01-.02-.02-.022Zm-.715.002a.023.023 0 0 0-.027.006l-.006.014-.034.614c0 .012.007.02.017.024l.015-.002.201-.093.01-.008.003-.011.018-.43-.003-.012-.01-.01-.184-.092Z"/><path fill="#09244B" d="M12 2c5.523 0 10 4.477 10 10a9.996 9.996 0 0 1-5 8.662V13a1 1 0 1 0-2 0v8c0 .182.049.352.133.5-.985.324-2.039.5-3.133.5a9.991 9.991 0 0 1-3.133-.5A.996.996 0 0 0 9 21v-8a1 1 0 1 0-2 0v7.662A9.996 9.996 0 0 1 2 12C2 6.477 6.477 2 12 2Zm-2 6H7a1 1 0 0 0-.117 1.993L7 10h3a1 1 0 0 0 .117-1.993L10 8Zm7 0h-3a1 1 0 1 0 0 2h3a1 1 0 1 0 0-2Z"/></g></svg>
